X: 41678
T: Upton-upon-Severn Stick Dance
R: jig
M: 6/8
K: Gmajor
dBB BAG|AGA BGE|DGG GBd|edB A2 d|
dBB BAG|AGA BGE|DGG GAB|AGF G2:|
GBd g2 g|edc BcA|GBd g2 g|edB A2 A|
GBd g2 g|edc Bcd|ege dBG|AGF G2:|

